tools/download-figma-icons/icons/action/logout.svg

<svg width="24" height="24" viewBox="0 0 24 24" fill="none" xmlns="http://www.w3.org/2000/svg">
<path d="M10.125 20.25H4.875C4.2525 20.25 3.75 19.7475 3.75 19.125V4.875C3.75 4.2525 4.2525 3.75 4.875 3.75H10.125C10.7475 3.75 11.25 3.2475 11.25 2.625C11.25 2.0025 10.7475 1.5 10.125 1.5H4.875C3.015 1.5 1.5 3.015 1.5 4.875V19.125C1.5 20.985 3.015 22.5 4.875 22.5H10.125C10.7475 22.5 11.25 21.9975 11.25 21.375C11.25 20.7525 10.7475 20.25 10.125 20.25Z" fill="black"/>
<path d="M22.4175 12.4275V12.4125C22.47 12.285 22.5 12.15 22.5 12C22.5 11.85 22.47 11.715 22.4175 11.5875V11.5725C22.3575 11.43 22.275 11.31 22.17 11.205L16.92 5.95504C16.4775 5.51254 15.765 5.51254 15.33 5.95504C14.895 6.39754 14.8875 7.11004 15.33 7.54504L18.66 10.875H8.625C8.0025 10.875 7.5 11.3775 7.5 12C7.5 12.6225 8.0025 13.125 8.625 13.125H18.66L15.33 16.455C14.8875 16.8975 14.8875 17.61 15.33 18.045C15.5475 18.2625 15.84 18.375 16.125 18.375C16.41 18.375 16.7025 18.2625 16.92 18.045L22.17 12.795C22.275 12.69 22.3575 12.5625 22.4175 12.4275Z" fill="black"/>
</svg>

<svg width="24" height="24" viewBox="0 0 24 24" fill="none" xmlns="http://www.w3.org/2000/svg"><path d="M10.125 20.25h-5.25a1.123 1.123 0 0 1-1.125-1.125V4.875c0-.622.503-1.125 1.125-1.125h5.25c.623 0 1.125-.502 1.125-1.125S10.748 1.5 10.125 1.5h-5.25A3.38 3.38 0 0 0 1.5 4.875v14.25A3.38 3.38 0 0 0 4.875 22.5h5.25c.623 0 1.125-.503 1.125-1.125s-.502-1.125-1.125-1.125Z" fill="currentColor"/><path d="M22.418 12.428v-.016a1.065 1.065 0 0 0 0-.825v-.014a1.134 1.134 0 0 0-.248-.368l-5.25-5.25a1.118 1.118 0 0 0-1.59 0 1.125 1.125 0 0 0 0 1.59l3.33 3.33H8.625c-.623 0-1.125.502-1.125 1.125s.502 1.125 1.125 1.125H18.66l-3.33 3.33a1.118 1.118 0 0 0 0 1.59c.217.217.51.33.795.33.285 0 .578-.113.795-.33l5.25-5.25a1.22 1.22 0 0 0 .247-.367Z" fill="currentColor"/></svg>
